usr/share/icons/biglinux-icons-material/scalable/mimetypes/message-partial.svg

<svg width="24" height="24" viewBox="0 0 24 24" fill="none" xmlns="http://www.w3.org/2000/svg">
<rect x="1" y="1" width="22" height="22" rx="6.6" fill="url(#paint0_radial_21_1047)"/>
<path opacity="0.5" d="M12.0001 4L3.40963 10.1466C3.39115 10.1581 3.37441 10.1723 3.3569 10.1849L3.34686 10.1921V10.1933C3.13735 10.3502 3.00032 10.5914 3.00032 10.8664V17.7512H3.00283L3.93195 16.6088L4.53336 18.0446L5.70355 17.2314L6.57615 19.5175L7.75887 17.7511L8.96801 19.0025L9.63973 17.4182L10.3755 18.2636L11.39 17.253L12.4221 19.5726H12.7046L13.6827 16.2087L14.4335 18.4421L15.2923 17.1788L16.3997 19.5726H16.7262L17.2723 17.7512L18.2241 18.3248L19.1444 17.4865L20.0961 18.2506L21.0001 17.7907V10.8666C21.0001 10.5855 20.8575 10.3392 20.6398 10.1829L20.6435 10.1781L12.0001 4ZM12.0001 7.92305C12.8525 7.92305 13.6701 8.24604 14.2729 8.82096C14.8757 9.39588 15.2143 10.1756 15.2143 10.9887V11.6018V11.9084C15.2143 12.4179 14.7842 12.8281 14.25 12.8281C13.856 12.8281 13.5198 12.6036 13.3699 12.282C13.1907 12.4548 12.9774 12.5921 12.7423 12.6858C12.5072 12.7795 12.2549 12.8279 12.0001 12.8281C11.4886 12.8281 10.998 12.6343 10.6364 12.2893C10.2747 11.9444 10.0715 11.4765 10.0715 10.9887C10.0715 10.5009 10.2747 10.033 10.6364 9.68805C10.998 9.3431 11.4886 9.14931 12.0001 9.14931C12.5115 9.14931 13.0021 9.3431 13.3638 9.68805C13.7254 10.033 13.9286 10.5009 13.9286 10.9887V11.6018V11.9084C13.9286 12.0782 14.072 12.215 14.25 12.215C14.4281 12.215 14.5715 12.0782 14.5715 11.9084V11.6018V10.9887C14.5715 10.3382 14.3005 9.71444 13.8183 9.2545C13.3361 8.79457 12.682 8.53618 12.0001 8.53618C11.3181 8.53618 10.664 8.79457 10.1818 9.2545C9.69957 9.71444 9.42865 10.3382 9.42865 10.9887C9.42865 11.6391 9.69957 12.263 10.1818 12.7229C10.664 13.1828 11.3181 13.4412 12.0001 13.4412H13.2858H14.25C14.4281 13.4412 14.5715 13.5779 14.5715 13.7478C14.5715 13.9176 14.4281 14.0543 14.25 14.0543H13.2858H12.0001C11.1476 14.0543 10.33 13.7314 9.72724 13.1564C9.12445 12.5815 8.7858 11.8018 8.7858 10.9887C8.7858 10.1756 9.12445 9.39588 9.72724 8.82096C10.33 8.24604 11.1476 7.92305 12.0001 7.92305ZM12.0001 9.76244C11.6591 9.76244 11.332 9.89163 11.0909 10.1216C10.8498 10.3516 10.7144 10.6635 10.7144 10.9887C10.7144 11.3139 10.8498 11.6258 11.0909 11.8558C11.332 12.0858 11.6591 12.215 12.0001 12.215C12.341 12.215 12.6681 12.0858 12.9092 11.8558C13.1503 11.6258 13.2858 11.3139 13.2858 10.9887C13.2858 10.6635 13.1503 10.3516 12.9092 10.1216C12.6681 9.89163 12.341 9.76244 12.0001 9.76244Z" fill="white"/>
<path d="M5.89285 6.08341C5.35865 6.08341 4.92858 6.49401 4.92858 7.00311V16.2013C4.92858 16.7104 5.35865 17.1198 5.89285 17.1198H13.4174L13.6824 16.2085L13.9887 17.1198H18.1069C18.6412 17.1198 19.0712 16.7103 19.0712 16.2013V7.00311C19.0712 6.49401 18.6412 6.08341 18.1069 6.08341H5.89285ZM11.9999 7.9228C12.8524 7.9228 13.67 8.24579 14.2728 8.82071C14.8756 9.39563 15.2142 10.1754 15.2142 10.9885V11.6016V11.9081C15.2142 12.4177 14.7841 12.8278 14.2499 12.8278C13.8559 12.8278 13.5197 12.6034 13.3698 12.2818C13.1906 12.4546 12.9773 12.5918 12.7422 12.6856C12.507 12.7793 12.2548 12.8277 11.9999 12.8278C11.4885 12.8278 10.9979 12.634 10.6362 12.2891C10.2746 11.9441 10.0714 11.4763 10.0714 10.9885C10.0714 10.5006 10.2746 10.0328 10.6362 9.68781C10.9979 9.34286 11.4885 9.14906 11.9999 9.14906C12.5114 9.14906 13.002 9.34286 13.3636 9.68781C13.7253 10.0328 13.9285 10.5006 13.9285 10.9885V11.6016V11.9081C13.9285 12.078 14.0719 12.2147 14.2499 12.2147C14.428 12.2147 14.5713 12.078 14.5713 11.9081V11.6016V10.9885C14.5713 10.338 14.3004 9.7142 13.8182 9.25426C13.336 8.79432 12.6819 8.53593 11.9999 8.53593C11.318 8.53593 10.6639 8.79432 10.1817 9.25426C9.69945 9.7142 9.42854 10.338 9.42854 10.9885C9.42854 11.6389 9.69945 12.2627 10.1817 12.7226C10.6639 13.1826 11.318 13.441 11.9999 13.441H13.2856H14.2499C14.428 13.441 14.5713 13.5777 14.5713 13.7475C14.5713 13.9174 14.428 14.0541 14.2499 14.0541H13.2856H11.9999C11.1475 14.0541 10.3299 13.7311 9.72712 13.1562C9.12433 12.5813 8.78569 11.8015 8.78569 10.9885C8.78569 10.1754 9.12433 9.39563 9.72712 8.82071C10.3299 8.24579 11.1475 7.9228 11.9999 7.9228ZM11.9999 9.76219C11.659 9.76219 11.3319 9.89139 11.0908 10.1214C10.8497 10.3513 10.7142 10.6632 10.7142 10.9885C10.7142 11.3137 10.8497 11.6256 11.0908 11.8555C11.3319 12.0855 11.659 12.2147 11.9999 12.2147C12.3409 12.2147 12.668 12.0855 12.9091 11.8555C13.1502 11.6256 13.2856 11.3137 13.2856 10.9885C13.2856 10.6632 13.1502 10.3513 12.9091 10.1214C12.668 9.89139 12.3409 9.76219 11.9999 9.76219Z" fill="white"/>
<path d="M3.00003 10.8664V17.7513H3.00254L3.93165 16.6088L4.53307 18.0447L5.70325 17.2315L6.57586 19.5176L7.75858 17.7512L8.96772 19.0026L9.63943 17.4183L10.3752 18.2637L11.3897 17.253L12.5925 19.9558L13.2843 17.5776L3.00003 10.8664ZM14.3843 18.2945L14.4332 18.4418L14.4872 18.3628L14.3843 18.2945ZM16.4258 19.6273L16.5979 19.9998L16.6632 19.7818L16.4258 19.6273Z" fill="#FCD4E1"/>
<path d="M20.9999 10.8664L10.1177 17.9677L10.3751 18.2635L11.3896 17.2528L12.5924 19.9556L13.6822 16.2086L14.4331 18.442L15.2919 17.1786L16.5976 20L17.2718 17.751L18.2236 18.3247L19.1439 17.4864L20.0956 18.2504L20.9996 17.7906L20.9999 10.8664ZM9.13476 18.6097L8.79952 18.8276L8.96777 19.0024L9.13476 18.6097Z" fill="#FDEFEF"/>
<defs>
<radialGradient id="paint0_radial_21_1047" cx="0" cy="0" r="1" gradientUnits="userSpaceOnUse" gradientTransform="translate(17.5 1) rotate(116.565) scale(24.5967)">
<stop stop-color="#F97798"/>
<stop offset="1" stop-color="#DE2957"/>
</radialGradient>
</defs>
</svg>

<svg xmlns="http://www.w3.org/2000/svg" width="24" height="24" fill="none"><rect width="22" height="22" x="1" y="1" fill="url(#a)" rx="6.6"/><path fill="#fff" d="m12 4-8.59 6.147c-.019.011-.036.025-.053.038l-.01.007v.001a.84.84 0 0 0-.347.673v6.885h.003l.929-1.142.601 1.436 1.17-.814.873 2.286 1.183-1.766 1.209 1.252.672-1.585.736.846 1.014-1.011 1.032 2.32h.283l.978-3.364.75 2.233.86-1.263 1.107 2.394h.326l.546-1.822.952.574.92-.838.952.764.904-.46v-6.924a.84.84 0 0 0-.36-.684l.003-.005L12 4Zm0 3.923c.852 0 1.67.323 2.273.898.603.575.941 1.355.941 2.168v.919c0 .51-.43.92-.964.92a.964.964 0 0 1-.88-.546c-.18.173-.393.31-.628.404a2.01 2.01 0 0 1-.742.142 1.977 1.977 0 0 1-1.364-.539 1.797 1.797 0 0 1-.564-1.3c0-.488.203-.956.564-1.301A1.977 1.977 0 0 1 12 9.15c.511 0 1.002.194 1.364.54.361.344.565.812.565 1.3v.919c0 .17.143.307.321.307a.314.314 0 0 0 .322-.307v-.919c0-.65-.271-1.275-.754-1.735A2.636 2.636 0 0 0 12 8.537c-.682 0-1.336.259-1.818.719a2.396 2.396 0 0 0-.753 1.734c0 .65.27 1.274.753 1.734.482.46 1.136.718 1.818.718h2.25c.178 0 .322.137.322.307 0 .17-.144.306-.322.306H12c-.852 0-1.67-.323-2.273-.898a2.995 2.995 0 0 1-.941-2.167c0-.813.338-1.593.941-2.168A3.295 3.295 0 0 1 12 7.923Zm0 1.84c-.34 0-.668.129-.91.359-.24.23-.376.542-.376.867 0 .325.136.637.377.867.241.23.568.359.91.359.34 0 .667-.13.908-.36.241-.23.377-.541.377-.866 0-.325-.136-.637-.377-.867a1.318 1.318 0 0 0-.909-.36Z" opacity=".5"/><path fill="#fff" d="M5.893 6.083c-.534 0-.964.411-.964.92v9.198c0 .51.43.919.964.919h7.524l.265-.912.307.912h4.118c.534 0 .964-.41.964-.919V7.003c0-.509-.43-.92-.964-.92H5.893ZM12 7.923c.852 0 1.67.323 2.273.898.603.575.941 1.354.941 2.168v.919c0 .51-.43.92-.964.92a.964.964 0 0 1-.88-.546c-.18.173-.393.31-.628.404a2.009 2.009 0 0 1-.742.142 1.977 1.977 0 0 1-1.364-.539 1.798 1.798 0 0 1-.565-1.3c0-.488.204-.956.565-1.301A1.977 1.977 0 0 1 12 9.149c.511 0 1.002.194 1.364.539.361.345.564.813.564 1.3V11.909c0 .17.144.307.322.307a.314.314 0 0 0 .321-.307V10.988c0-.65-.27-1.274-.753-1.734A2.636 2.636 0 0 0 12 8.536c-.682 0-1.336.258-1.818.718a2.396 2.396 0 0 0-.753 1.735c0 .65.27 1.274.753 1.734.482.46 1.136.718 1.818.718h2.25c.178 0 .321.137.321.306 0 .17-.143.307-.321.307H12c-.852 0-1.67-.323-2.273-.898a2.996 2.996 0 0 1-.941-2.168c0-.813.338-1.592.941-2.167A3.295 3.295 0 0 1 12 7.923Zm0 1.84c-.341 0-.668.128-.91.358-.24.23-.376.542-.376.867 0 .326.136.638.377.867.24.23.568.36.909.36.34 0 .668-.13.91-.36.24-.23.376-.541.376-.867 0-.325-.136-.637-.377-.867a1.318 1.318 0 0 0-.91-.359Z"/><path fill="#FCD4E1" d="M3 10.866v6.885h.003l.929-1.142.601 1.436 1.17-.814.873 2.287 1.183-1.767 1.209 1.252.671-1.585.736.846 1.015-1.011 1.202 2.703.692-2.378L3 10.866Zm11.384 7.428.05.148.053-.08-.103-.067Zm2.042 1.333.172.373.065-.218-.237-.155Z"/><path fill="#FDEFEF" d="m21 10.866-10.882 7.102.257.296 1.015-1.011 1.202 2.703 1.09-3.747.751 2.233.859-1.263L16.598 20l.674-2.249.952.574.92-.839.952.764.904-.46v-6.924ZM9.135 18.61l-.335.218.168.174.167-.392Z"/><defs><radialGradient id="a" cx="0" cy="0" r="1" gradientTransform="rotate(116.565 8.441 5.908) scale(24.5967)" gradientUnits="userSpaceOnUse"><stop stop-color="#F97798"/><stop offset="1" stop-color="#DE2957"/></radialGradient></defs></svg>
